X:4
T:B004-  Ah! How pleasant 'tis to love
S:Henry Purcell, via BBM from 'The Banquet of Music', 2nd bk,
1688
Q:1/4=120
L:1/4
M:3/4
K:C
c2 e|g f2|d2 e|f3|e3/2 f/2 e|(AB)c|(d3/2e/2) (d/2c/2)|\
B3|A2B|(dB)(A/2G/2)|c2d|e3|fdB|g2(f/2e/2)|e2(d/2c/2)|.c3||

